packages/core/src/svgs/avg.svg

<svg width="24" height="24" viewBox="0 0 24 24" fill="none" xmlns="http://www.w3.org/2000/svg">
<g clip-path="url(#clip0_31_6398)">
<path d="M0 0H24V24H0V0Z" fill="#F0F3FA"/>
<path d="M8.98279 11.1427L8.69993 10.307C8.2285 10.4956 7.28564 11.0313 7.28564 11.6956C7.28564 12.5313 8.98279 15.5827 11.2414 15.5827C13.4999 15.5827 14.6271 14.7513 15.7585 14.4727C16.8899 14.1941 19.7142 13.6413 19.7142 11.9741C19.7142 10.6456 17.0314 10.1227 15.3385 10.0327L16.0414 11.1427H8.98279Z" fill="url(#paint0_linear_31_6398)"/>
<path d="M18.6643 12.1244C18.6086 12.8658 16.1614 13.3073 13.2 13.1101C10.2386 12.9216 7.87713 12.163 7.92856 11.4216C7.98427 10.6801 10.4314 10.2344 13.3928 10.4273C16.3586 10.6244 18.7157 11.383 18.6643 12.1244Z" fill="url(#paint1_linear_31_6398)"/>
<path d="M9.68122 11.5284C9.63536 11.5047 9.59821 11.467 9.57511 11.4208C9.55201 11.3746 9.54414 11.3222 9.55265 11.2713C9.7198 10.2599 10.7869 9.47559 12.0812 9.47559C13.4869 9.47559 14.6312 10.4099 14.6312 11.5584C14.6312 11.6442 14.6227 11.7256 14.6141 11.807C14.5969 11.9013 14.5284 11.9784 14.4298 12.0042C12.844 12.455 11.1461 12.2849 9.68122 11.5284Z" fill="url(#paint2_linear_31_6398)"/>
<path fill-rule="evenodd" clip-rule="evenodd" d="M12.6514 17.8156C12.6514 17.6656 12.6086 17.477 12.5143 17.3056C12.42 17.1341 12.3086 17.0313 12.2314 16.9927C12.2108 16.9798 12.1872 16.9724 12.1629 16.9713L12.1543 16.9756C12.1329 16.997 12.0857 17.0698 12.09 17.2327C12.09 17.3913 12.1329 17.5756 12.2314 17.747C12.3257 17.9184 12.4329 18.0213 12.5143 18.0598C12.5486 18.0813 12.5743 18.0813 12.5786 18.0813L12.5871 18.077C12.6086 18.0556 12.6557 17.9827 12.6514 17.8198V17.8156ZM12.78 18.2827C12.9943 18.0898 12.9857 17.597 12.7629 17.177C12.5357 16.7613 12.18 16.577 11.9614 16.7698C11.7471 16.9627 11.7557 17.4598 11.9786 17.8756C12.2057 18.2956 12.5614 18.4756 12.78 18.2827ZM9.28285 8.0227C9.45428 8.09985 9.59571 8.09985 9.68571 8.06556C9.76285 8.03556 9.81428 7.97985 9.82714 7.8727C9.84 7.76556 9.81 7.6027 9.69428 7.42699C9.57428 7.25556 9.41142 7.11842 9.24428 7.04127C9.07285 6.96842 8.93142 6.96413 8.84142 6.99842C8.76428 7.02842 8.71285 7.08842 8.70428 7.19128C8.68714 7.3027 8.71714 7.46127 8.83285 7.63699C8.95285 7.8127 9.11571 7.94556 9.28285 8.0227ZM8.59714 7.79127C8.88857 8.22842 9.42428 8.46842 9.78857 8.3227C10.1571 8.18127 10.2171 7.71413 9.93 7.27699C9.63857 6.83985 9.10714 6.59985 8.73857 6.74127C8.37 6.8827 8.31 7.35413 8.60142 7.79127H8.59714Z" fill="#3C8655"/>
<path d="M14.9144 9.47581C13.6115 7.85153 9.79721 4.20438 7.38007 6.07724C4.96293 7.94581 7.68007 12.8487 8.98293 14.4772C9.80881 15.4525 10.7666 16.3079 11.8286 17.0187C11.7986 17.1472 11.7986 17.3058 11.8286 17.4687C10.6357 16.6491 9.57243 15.6551 8.67435 14.5201C5.9015 11.0572 5.16435 7.08438 7.03293 5.6401C8.89721 4.2001 12.4244 6.01724 15.1972 9.47581L15.6258 10.033H15.3344C15.1801 9.81867 15.0386 9.63438 14.9144 9.47581ZM17.4558 13.9972C17.9486 15.493 17.9872 16.9544 16.8901 17.803C15.7886 18.6558 14.3186 18.3772 12.9258 17.6701C12.9472 17.8287 12.9386 17.9787 12.8958 18.0987C14.5801 18.9687 16.1658 19.1401 17.1729 18.3558C18.2529 17.5244 18.3472 15.8401 17.7001 13.8944L17.4558 13.9972Z" fill="#3C8655"/>
<path d="M8.60124 7.79145C8.68696 7.9243 8.79838 8.04002 8.92267 8.1343C8.4341 9.73716 10.0712 12.7457 10.6798 13.5986C11.3698 14.58 14.2627 17.6786 15.8784 16.5386C16.4698 16.1229 16.5641 15.33 16.4055 14.4386L16.7784 14.2843C17.0312 15.5272 16.8641 16.53 16.2084 16.9929C14.9355 17.8886 12.3084 16.3672 10.3498 13.5986C8.77696 11.3786 8.1041 9.02573 8.5541 7.71859L8.59696 7.79145H8.60124ZM15.1541 10.6329L14.957 10.35C13.1312 7.77859 10.7398 6.28287 9.38553 6.80144C9.56981 6.88716 9.74553 7.02859 9.87838 7.2043C11.5327 6.79287 13.9927 9.4543 14.6312 10.35L14.7684 10.56L15.1541 10.6329Z" fill="#3C8655"/>
</g>
<defs>
<linearGradient id="paint0_linear_31_6398" x1="19.7142" y1="12.5313" x2="7.28564" y2="12.5313" gradientUnits="userSpaceOnUse">
<stop stop-color="#99C454"/>
<stop offset="1" stop-color="#4E984D"/>
</linearGradient>
<linearGradient id="paint1_linear_31_6398" x1="8.41713" y1="11.4216" x2="16.6071" y2="11.9958" gradientUnits="userSpaceOnUse">
<stop stop-color="#B8CF52"/>
<stop offset="1" stop-color="#D7DD50"/>
</linearGradient>
<linearGradient id="paint2_linear_31_6398" x1="9.81408" y1="11.0956" x2="14.7984" y2="12.4542" gradientUnits="userSpaceOnUse">
<stop stop-color="#A07B58"/>
<stop offset="1" stop-color="#B9966D"/>
</linearGradient>
<clipPath id="clip0_31_6398">
<rect width="24" height="24" fill="white"/>
</clipPath>
</defs>
</svg>

<svg xmlns="http://www.w3.org/2000/svg" width="24" height="24" fill="none" viewBox="0 0 24 24"><g clip-path="url(#a)"><path fill="#F0F3FA" d="M0 0h24v24H0z"/><path fill="url(#b)" d="m8.983 11.143-.283-.836c-.471.189-1.414.724-1.414 1.389 0 .835 1.697 3.887 3.955 3.887s3.386-.832 4.518-1.11c1.13-.279 3.955-.832 3.955-2.499 0-1.328-2.683-1.851-4.375-1.941l.702 1.11z"/><path fill="url(#c)" d="M18.664 12.124c-.055.742-2.503 1.183-5.464.986-2.961-.188-5.323-.947-5.271-1.688.055-.742 2.502-1.188 5.464-.995 2.966.197 5.323.956 5.271 1.697"/><path fill="url(#d)" d="M9.681 11.528a.24.24 0 0 1-.128-.257c.167-1.011 1.234-1.795 2.528-1.795 1.406 0 2.55.934 2.55 2.082q-.002.128-.017.249a.25.25 0 0 1-.184.197 6.48 6.48 0 0 1-4.749-.476"/><path fill="#3C8655" fill-rule="evenodd" d="M12.651 17.816c0-.15-.042-.339-.137-.51-.094-.172-.205-.275-.283-.313a.14.14 0 0 0-.068-.022l-.009.005c-.021.021-.068.094-.064.257 0 .158.043.343.141.514.095.171.202.274.283.313.035.021.06.021.065.021l.008-.004c.022-.021.069-.094.064-.257zm.129.467c.214-.193.206-.686-.017-1.106-.227-.416-.583-.6-.802-.407-.214.193-.205.69.018 1.106.227.42.582.6.801.407M9.283 8.023c.171.077.313.077.403.043.077-.03.128-.086.141-.193s-.017-.27-.133-.446a1.16 1.16 0 0 0-.45-.386c-.171-.073-.313-.077-.403-.043-.077.03-.128.09-.137.193-.017.112.013.27.129.446.12.176.283.309.45.386m-.686-.232c.292.437.827.677 1.192.532.368-.142.428-.609.141-1.046-.291-.437-.823-.677-1.191-.536s-.429.613-.138 1.05z" clip-rule="evenodd"/><path fill="#3C8655" d="M14.914 9.476C13.611 7.852 9.797 4.204 7.38 6.077c-2.417 1.869.3 6.772 1.603 8.4.826.976 1.784 1.83 2.846 2.542-.03.128-.03.287 0 .45a14.5 14.5 0 0 1-3.155-2.949c-2.772-3.463-3.51-7.436-1.641-8.88 1.864-1.44 5.391.377 8.164 3.836l.429.557h-.292a17 17 0 0 0-.42-.557m2.542 4.521c.493 1.496.531 2.957-.566 3.806-1.101.853-2.571.574-3.964-.133a.9.9 0 0 1-.03.429c1.684.87 3.27 1.041 4.277.257 1.08-.832 1.174-2.516.527-4.462z"/><path fill="#3C8655" d="M8.601 7.791c.086.133.197.249.322.343-.489 1.603 1.148 4.612 1.757 5.465.69.981 3.583 4.08 5.198 2.94.592-.416.686-1.209.527-2.1l.373-.155c.253 1.243.086 2.246-.57 2.709-1.272.896-3.9-.626-5.858-3.394-1.573-2.22-2.246-4.573-1.796-5.88l.043.072zm6.553 2.842-.197-.283c-1.826-2.571-4.217-4.067-5.571-3.549.184.086.36.228.492.403 1.655-.411 4.115 2.25 4.753 3.146l.137.21z"/></g><defs><linearGradient id="b" x1="19.714" x2="7.286" y1="12.531" y2="12.531" gradientUnits="userSpaceOnUse"><stop stop-color="#99C454"/><stop offset="1" stop-color="#4E984D"/></linearGradient><linearGradient id="c" x1="8.417" x2="16.607" y1="11.422" y2="11.996" gradientUnits="userSpaceOnUse"><stop stop-color="#B8CF52"/><stop offset="1" stop-color="#D7DD50"/></linearGradient><linearGradient id="d" x1="9.814" x2="14.798" y1="11.096" y2="12.454" gradientUnits="userSpaceOnUse"><stop stop-color="#A07B58"/><stop offset="1" stop-color="#B9966D"/></linearGradient><clipPath id="a"><path fill="#fff" d="M0 0h24v24H0z"/></clipPath></defs></svg>
